brandFactory_export/1.Light/No me gusta_Dislike_1Light.svg

<?xml version="1.0" encoding="UTF-8"?>
<svg width="24px" height="24px" viewBox="0 0 24 24" version="1.1" xmlns="http://www.w3.org/2000/svg" xmlns:xlink="http://www.w3.org/1999/xlink">
    <title>1.Light/No me gusta_Dislike_1Light</title>
    <g id="Symbols" stroke="none" stroke-width="1" fill="none" fill-rule="evenodd">
        <g id="1.Light/No-me-gusta_Dislike_1Light" fill="#5CB615" fill-rule="nonzero">
            <path d="M3.08235294,10.6386555 C3.62352941,10.6386555 4.00336134,10.2621849 4.00336134,9.71764706 C4.00336134,9.17310924 3.62689076,8.79663866 3.08235294,8.79663866 C2.54117647,8.79663866 2.16134454,9.17647059 2.16134454,9.71764706 C2.16134454,10.2588235 2.53781513,10.6386555 3.08235294,10.6386555 L3.08235294,10.6386555 Z M22.1176471,10.9008403 C21.9193277,11.0857143 21.9058824,11.394958 22.0907563,11.5966387 L22.1176471,11.6235294 C22.4605042,11.9361345 22.6420644,12.4504202 22.6420644,13.1092437 C22.6420644,14.5411765 21.3344538,14.7226891 20.9310924,14.7462185 L16.7529412,14.7462185 L13.4655462,14.8436975 C13.2,14.8537815 12.9882353,15.0689076 12.9915966,15.3344538 C12.9915966,17.0689076 12.994958,18.8033613 13.0016807,20.5411765 L13.0084034,20.6890756 C13.0084034,22.0504202 12.4302521,22.6453782 11.1865546,22.6453782 C10.5378151,22.6453782 10.0336134,22.4739496 9.73109244,22.1478992 C9.44537815,21.8420168 9.3210084,21.394958 9.36470588,20.8134454 L9.38487395,20.5680672 C9.39831933,20.4638655 9.40504202,20.3663866 9.41176471,20.2453782 C9.41512605,20.2252101 9.41848739,20.205042 9.41848739,20.1848739 C9.4487395,18.7764706 9.46890756,16.9680672 9.33109244,15.492437 C9.11596639,13.2605042 7.01848739,12.0369748 6.21176471,11.6436975 L6.21176471,11.4957983 C6.21176471,11.4756303 6.21848739,11.4588235 6.21848739,11.4386555 L6.21848739,2.06722689 C6.21848739,2.04705882 6.21512605,2.0302521 6.21176471,2.01008403 L6.21176471,1.91932773 L9.51596639,1.87563025 C9.8789916,1.87563025 10.2621849,1.76806723 10.7394958,1.6302521 L11.0084034,1.55294118 C11.9226891,1.28403361 12.9579832,0.981512605 15.5529412,0.981512605 C20.0739496,0.981512605 20.2554622,1.46890756 20.6151261,2.44369748 C20.6957983,2.97815126 20.6588235,3.40840336 20.4739496,3.7512605 C20.3462185,3.98991597 20.4369748,4.28907563 20.6756303,4.41680672 L20.7159664,4.43697479 C21.3008403,4.68235294 21.9966387,5.14621849 21.9966387,5.98655462 C21.9966387,6.53445378 21.8689076,6.97815126 21.6201681,7.26386555 C21.4420168,7.46890756 21.4655462,7.77478992 21.6705882,7.95294118 C21.6840336,7.96638655 21.7008403,7.97647059 21.7142857,7.98655462 C22.1378151,8.27563025 22.6420644,8.78655462 22.6420644,9.56302521 C22.6453782,10.1277311 22.4705882,10.5781513 22.1176471,10.9008403 L22.1176471,10.9008403 Z M4.72605042,1.54957983 C5.00168067,1.54957983 5.22352941,1.76806723 5.23697479,2.04033613 L5.23697479,11.4689076 C5.22352941,11.7411765 4.99831933,11.9563025 4.72605042,11.9563025 L1.49243697,11.9563025 C1.20672269,11.9563025 0.978151261,11.7243697 0.978151261,11.4386555 L0.978151261,2.06722689 C0.978151261,1.78151261 1.21008403,1.54957983 1.49243697,1.54957983 L4.72605042,1.54957983 Z M23.102521,11.2638655 C23.3815126,10.8840336 23.6235294,10.3294118 23.6235294,9.55966387 C23.6235294,8.7697479 23.2806723,8.04033613 22.6487395,7.47563025 C22.8302521,7.12941176 22.9781513,6.64537815 22.9781513,5.98655462 C22.9781513,5.0487395 22.4672269,4.26554622 21.5327731,3.74789916 C21.6571429,3.31092437 21.6638655,2.81344538 21.5596639,2.19831933 C20.9310924,0.47394958 20.0739496,0 15.5563025,0 C12.8168067,0 11.6638655,0.339495798 10.7361345,0.611764706 L10.4840336,0.685714286 C10.0537815,0.806722689 9.74789916,0.894117647 9.51260504,0.894117647 L6.07394958,0.941176471 C5.9697479,0.944537815 5.86890756,0.964705882 5.77478992,1.00504202 C5.49579832,0.72605042 5.11932773,0.571428571 4.72605042,0.571428571 L1.49243697,0.571428571 C0.668907563,0.571428571 0,1.24033613 0,2.06722689 L0,11.4386555 C0,12.2621849 0.668907563,12.9344538 1.49243697,12.9344538 L4.72605042,12.9344538 C5.12941176,12.9344538 5.49243697,12.7731092 5.76134454,12.5142857 C6.38655462,12.8168067 8.19159664,13.8352941 8.35966387,15.5865546 C8.49411765,16.9882353 8.47731092,18.7226891 8.44705882,20.0941176 C8.44369748,20.2184874 8.43361345,20.3428571 8.41680672,20.4672269 L8.39327731,20.7462185 C8.33277311,21.5932773 8.5512605,22.3092437 9.02184874,22.8134454 C9.51260504,23.3445378 10.2655462,23.6235294 11.189916,23.6235294 C12.9680672,23.6235294 13.989916,22.5848739 13.989916,20.7798319 L13.9865546,20.6655462 L13.9831933,20.5042017 C13.9831933,18.8168067 13.9764706,16.7327731 13.9764706,15.8084034 L16.7731092,15.7243697 L20.9647059,15.7243697 C22.2084034,15.6571429 23.6268908,14.9310924 23.6268908,13.1092437 C23.6235294,12.2453782 23.3815126,11.6537815 23.102521,11.2638655 L23.102521,11.2638655 Z" id="No-me-gusta_Dislike_1Light"></path>
        </g>
    </g>
</svg>

<svg width="24" height="24" viewBox="0 0 24 24" xmlns="http://www.w3.org/2000/svg"><path d="M3.082 10.639c.542 0 .921-.377.921-.921 0-.545-.376-.921-.92-.921-.542 0-.922.38-.922.92 0 .542.377.922.921.922zm19.036.262a.493.493 0 00-.027.696l.027.027c.343.312.524.826.524 1.485 0 1.432-1.308 1.614-1.71 1.637h-4.18l-3.286.098a.488.488 0 00-.474.49c0 1.735.003 3.47.01 5.207l.006.148c0 1.361-.578 1.956-1.821 1.956-.65 0-1.153-.171-1.456-.497-.286-.306-.41-.753-.366-1.335l.02-.245c.013-.104.02-.202.027-.323a.37.37 0 00.006-.06c.03-1.409.05-3.217-.087-4.693-.215-2.231-2.313-3.455-3.12-3.848v-.148c0-.02.007-.037.007-.057V2.067c0-.02-.003-.037-.006-.057v-.09l3.304-.044c.363 0 .746-.108 1.223-.246l.27-.077c.914-.269 1.949-.571 4.544-.571 4.52 0 4.702.487 5.062 1.462.08.534.044.964-.141 1.307a.493.493 0 00.202.666l.04.02c.585.245 1.28.71 1.28 1.55 0 .547-.127.991-.376 1.277a.486.486 0 00.05.689c.014.013.03.023.044.034.424.289.928.8.928 1.576.003.565-.171 1.015-.524 1.338zM4.726 1.55c.276 0 .498.218.511.49v9.429a.513.513 0 01-.51.487H1.491a.515.515 0 01-.514-.517V2.067c0-.285.232-.517.514-.517h3.234zm18.377 9.714c.279-.38.52-.935.52-1.704 0-.79-.342-1.52-.974-2.084.181-.347.33-.83.33-1.49 0-.937-.512-1.72-1.446-2.238.124-.437.13-.935.027-1.55C20.93.474 20.074 0 15.556 0c-2.74 0-3.892.34-4.82.612l-.252.074c-.43.12-.736.208-.971.208l-3.44.047a.822.822 0 00-.298.064A1.48 1.48 0 004.726.571H1.492C.67.571 0 1.241 0 2.067v9.372c0 .823.669 1.495 1.492 1.495h3.234c.403 0 .766-.16 1.035-.42.626.303 2.43 1.321 2.599 3.073.134 1.401.117 3.136.087 4.507a3.488 3.488 0 01-.03.373l-.024.28c-.06.846.158 1.562.629 2.066.49.532 1.244.81 2.168.81 1.778 0 2.8-1.038 2.8-2.843l-.003-.114-.004-.162c0-1.687-.007-3.771-.007-4.696l2.797-.084h4.192c1.243-.067 2.662-.793 2.662-2.615-.003-.864-.245-1.455-.524-1.845z" fill="#5CB615" fill-rule="nonzero"/></svg>
